X:1
T:I've Got No Use For The Women
M:3/4
L:1/4
K:D
 z2 A| A F A| B G B| A F2-| F2 A| d d d| d c B| A3-| A2A/2-A/2| d2 d|\
 d c B| A F2-| F2 A/2A/2| B2 A| G2 F| E3-| E2 A| A2 A| B G B| A F2-|\
 F2- A| d d d| d c B| A3-| A2 A| d d d| d c B| A F2-| F2 A| A B A|\
 G F E| D3-| D z2|
